app/assets/images/icons/active/point--pin.svg

<svg width="22" height="32" viewBox="0 0 22 32" xmlns="http://www.w3.org/2000/svg" xmlns:sketch="http://www.bohemiancoding.com/sketch/ns"><title>point--pin</title><g sketch:type="MSLayerGroup" fill="none"><path d="M15.518 29.984c0 1.105-2.016 2-4.5 2-2.487 0-4.5-.895-4.5-2 0-1.104 2.013-2 4.5-2 2.484 0 4.5.896 4.5 2" fill-opacity=".2" fill="#1D508D" sketch:type="MSShapeGroup"/><path d="M11.017.016c6.075 0 11.001 4.363 11.001 10.919 0 6.408-5.551 9.161-8.506 13.258-2.418 3.346-2.495 5.823-2.495 5.823s-.018-2.491-2.493-5.823c-3.04-4.097-8.506-6.661-8.506-13.258 0-6.559 4.925-10.919 10.999-10.919" fill="#FA5E5B" sketch:type="MSShapeGroup"/><path d="M11.019 6.881c-2.155 0-3.9 1.744-3.9 3.9 0 2.151 1.745 3.899 3.9 3.899 2.152 0 3.902-1.748 3.902-3.899 0-2.156-1.75-3.9-3.902-3.9" fill="#fff" sketch:type="MSShapeGroup"/></g></svg>

<?xml version="1.0" encoding="UTF-8" standalone="no"?>
<svg width="22px" height="32px" viewBox="0 0 22 32" version="1.1" xmlns="http://www.w3.org/2000/svg" xmlns:xlink="http://www.w3.org/1999/xlink" xmlns:sketch="http://www.bohemiancoding.com/sketch/ns">
    <title>point--pin</title>
    <description>Created with Sketch (http://www.bohemiancoding.com/sketch)</description>
    <defs></defs>
    <g id="Points-of-interest" stroke="none" stroke-width="1" fill="none" fill-rule="evenodd" sketch:type="MSPage">
        <g id="place--pin" sketch:type="MSLayerGroup">
            <path d="M15.518,29.984 C15.518,31.089 13.502,31.984 11.018,31.984 C8.531,31.984 6.518,31.089 6.518,29.984 C6.518,28.88 8.531,27.984 11.018,27.984 C13.502,27.984 15.518,28.88 15.518,29.984" id="Fill-1" fill-opacity="0.2" fill="#1D508D" sketch:type="MSShapeGroup"></path>
            <path d="M11.017,0.016 C17.092,0.016 22.018,4.379 22.018,10.935 C22.018,17.343 16.467,20.096 13.512,24.193 C11.094,27.539 11.017,30.016 11.017,30.016 C11.017,30.016 10.999,27.525 8.524,24.193 C5.484,20.096 0.018,17.532 0.018,10.935 C0.018,4.376 4.943,0.016 11.017,0.016" id="Fill-2" fill="#FA5E5B" sketch:type="MSShapeGroup"></path>
            <path d="M11.019,6.881 C8.864,6.881 7.119,8.625 7.119,10.781 C7.119,12.932 8.864,14.68 11.019,14.68 C13.171,14.68 14.921,12.932 14.921,10.781 C14.921,8.625 13.171,6.881 11.019,6.881" id="Fill-3" fill="#FFFFFF" sketch:type="MSShapeGroup"></path>
        </g>
    </g>
</svg>
